svg/lotus.svg

<svg width="54" height="48" viewBox="0 0 54 48" fill="none" xmlns="http://www.w3.org/2000/svg">
<path d="M54 11.6425C53.9999 11.4467 53.9221 11.259 53.7836 11.1205C53.6452 10.9821 53.4575 10.9043 53.2617 10.9042H52.3125C49.9129 10.9041 47.5247 11.2354 45.2157 11.8888C45.0406 9.49639 44.5353 7.13967 43.7143 4.88571L43.3898 3.99344C43.3227 3.80948 43.1853 3.65969 43.0078 3.57695C42.8303 3.49421 42.6272 3.4853 42.4432 3.55216L41.5513 3.87701C38.6074 4.94366 35.8814 6.53558 33.5057 8.57543C32.2102 5.72284 30.4106 3.12739 28.1935 0.913756L27.5223 0.242552C27.3812 0.10891 27.1943 0.0344238 27 0.0344238C26.8057 0.0344238 26.6188 0.10891 26.4777 0.242552L25.8069 0.913756C23.5897 3.12738 21.79 5.72283 20.4943 8.57543C18.1187 6.53543 15.3927 4.94337 12.4487 3.87658L11.5568 3.55174C11.3728 3.48476 11.1697 3.49362 10.9921 3.57637C10.8146 3.65912 10.6772 3.80899 10.6102 3.99302L10.2857 4.88529C9.46467 7.13925 8.9594 9.49596 8.78428 11.8884C6.47529 11.2352 4.08713 10.9039 1.6875 10.9042H0.738284C0.542514 10.9043 0.354794 10.9821 0.216364 11.1205C0.0779334 11.259 0.00011455 11.4467 2.77677e-06 11.6425V12.5917C-0.00311189 19.3296 2.61415 25.8047 7.29844 30.6479C4.84907 31.6839 2.62403 33.1854 0.746722 35.0692L0.216425 35.6016C0.147824 35.6701 0.0934 35.7514 0.0562673 35.841C0.0191346 35.9305 2.15644e-05 36.0265 2.15644e-05 36.1234C2.15644e-05 36.2204 0.0191346 36.3164 0.0562673 36.4059C0.0934 36.4955 0.147824 36.5768 0.216425 36.6453L0.746722 37.1743C3.4386 39.8836 6.82908 41.7932 10.5413 42.691C14.2534 43.5887 18.1418 43.4394 21.7742 42.2596C22.892 44.1632 24.247 45.9172 25.8065 47.4795C25.9632 47.6362 26.1493 47.7605 26.354 47.8453C26.5587 47.9301 26.7782 47.9738 26.9998 47.9738C27.2214 47.9738 27.4408 47.9301 27.6456 47.8453C27.8503 47.7605 28.0364 47.6362 28.1931 47.4795C29.753 45.9175 31.1079 44.1635 32.2253 42.2596C35.8578 43.4394 39.7463 43.5888 43.4585 42.691C47.1708 41.7933 50.5613 39.8836 53.2533 37.1743L53.7836 36.6436C53.8522 36.5751 53.9066 36.4938 53.9437 36.4042C53.9809 36.3147 54 36.2187 54 36.1218C54 36.0248 53.9809 35.9288 53.9437 35.8393C53.9066 35.7497 53.8522 35.6684 53.7836 35.5999L53.2533 35.0692C51.3762 33.1847 49.1511 31.6825 46.7016 30.6458C51.3853 25.8031 54.0026 19.3289 54 12.5917V11.6425ZM42.0563 5.26287L42.2546 5.19072L42.3267 5.38901C43.14 7.62613 43.6232 9.96977 43.7611 12.3461C40.8262 13.3682 38.0986 14.9087 35.7079 16.8944C35.4903 14.5388 34.9509 12.2241 34.1048 10.0149C36.4278 7.938 39.1269 6.32498 42.0563 5.26287ZM26.8511 1.9579L27 1.8094L27.1493 1.95874C29.4609 4.26399 31.289 7.00746 32.5266 10.0284C32.5342 10.0517 32.5431 10.0747 32.5531 10.0971C33.7409 13.0324 34.3495 16.1697 34.3453 19.3362C34.354 22.5643 33.7225 25.762 32.4872 28.7444C31.252 31.7268 29.4375 34.4346 27.1489 36.7111L27 36.86L26.8507 36.7111C23.4385 33.2943 21.1067 28.9493 20.1456 24.217C19.1844 19.4848 19.6364 14.5744 21.4452 10.0971C21.4552 10.0747 21.4641 10.0517 21.4718 10.0284C22.7097 7.00692 24.5386 4.26311 26.8511 1.9579ZM11.6733 5.38901L11.7454 5.19072L11.9437 5.26287C14.8727 6.32512 17.5713 7.93814 19.8939 10.0149C19.0479 12.2241 18.5085 14.5388 18.2908 16.8944C15.9001 14.9086 13.1723 13.3681 10.2372 12.3461C10.3757 9.96968 10.8594 7.62605 11.6733 5.38901ZM1.47657 12.3807H1.6875C7.79172 12.3759 13.6775 14.6517 18.1908 18.7616C18.1866 18.9527 18.1765 19.1413 18.1765 19.3345C18.1601 25.9548 20.683 32.3293 25.2256 37.1452C18.8578 36.925 12.8239 34.2427 8.3942 29.6629C3.96448 25.0831 1.48456 18.9632 1.47657 12.5917V12.3807ZM1.79086 36.1323L1.78242 36.1239L1.79086 36.1154C3.68206 34.2183 5.95146 32.7407 8.45142 31.7786C13.2168 36.1674 19.4517 38.6146 25.9301 38.6391C24.6883 39.4536 23.3566 40.122 21.9615 40.6312C21.8853 40.6446 21.8118 40.6704 21.7439 40.7075C21.7381 40.7108 21.7325 40.7147 21.7274 40.7189C18.3097 41.9117 14.6245 42.1137 11.0969 41.3018C7.5693 40.4899 4.34319 38.697 1.79086 36.1302V36.1323ZM27.1489 46.4353C27.1319 46.459 27.1095 46.4783 27.0836 46.4916C27.0577 46.505 27.0289 46.5119 26.9998 46.5119C26.9706 46.5119 26.9419 46.505 26.916 46.4916C26.89 46.4783 26.8676 46.459 26.8507 46.4353C25.4429 45.0266 24.2115 43.452 23.1837 41.7462C24.5232 41.199 25.8022 40.514 27 39.7022C28.1977 40.5141 29.4767 41.1991 30.8163 41.7462C29.7884 43.4521 28.5569 45.0267 27.1489 46.4353ZM52.2176 36.1218L52.2091 36.1302C49.6569 38.6969 46.4309 40.4896 42.9035 41.3016C39.3761 42.1135 35.691 41.9115 32.2734 40.7189C32.2675 40.7156 32.2629 40.7109 32.257 40.708C32.1892 40.6712 32.116 40.6455 32.0401 40.6316C30.6445 40.1224 29.3122 39.4538 28.0699 38.6391C34.5484 38.6145 40.7833 36.1671 45.5486 31.7781C48.0484 32.7396 50.3177 34.2166 52.2091 36.1129L52.2176 36.1218ZM52.5234 12.5917C52.5153 18.9632 50.0353 25.0831 45.6055 29.6628C41.1757 34.2425 35.1418 36.9247 28.774 37.1448C33.317 32.3291 35.8401 25.9545 35.8235 19.3341C35.8235 19.1421 35.8134 18.9523 35.8092 18.7612C40.3225 14.6514 46.2083 12.3758 52.3125 12.3807H52.5234V12.5917Z" fill="#3C3C3C"/>
</svg>

<svg width="54" height="48" viewBox="0 0 54 48" fill="none" xmlns="http://www.w3.org/2000/svg"><path d="M54 11.643a.739.739 0 0 0-.738-.739h-.95c-2.4 0-4.787.331-7.096.985a26.01 26.01 0 0 0-1.502-7.003l-.324-.893a.739.739 0 0 0-.947-.44l-.892.324a25.888 25.888 0 0 0-8.045 4.698A26.046 26.046 0 0 0 28.193.914l-.67-.671a.76.76 0 0 0-1.045 0l-.671.67a26.05 26.05 0 0 0-5.313 7.662 25.887 25.887 0 0 0-8.045-4.698l-.892-.325a.739.739 0 0 0-.947.441l-.324.892a26.009 26.009 0 0 0-1.502 7.003 26.059 26.059 0 0 0-7.097-.984H.739a.739.739 0 0 0-.738.739v.949a25.955 25.955 0 0 0 7.298 18.056 20.553 20.553 0 0 0-6.551 4.421l-.53.533a.737.737 0 0 0 0 1.043l.53.53a20.65 20.65 0 0 0 21.027 5.085 26.085 26.085 0 0 0 4.032 5.22 1.688 1.688 0 0 0 2.387 0 26.038 26.038 0 0 0 4.032-5.22 20.65 20.65 0 0 0 21.028-5.086l.53-.53a.736.736 0 0 0 0-1.044l-.53-.53a20.555 20.555 0 0 0-6.551-4.424A25.955 25.955 0 0 0 54 12.592v-.95zm-11.944-6.38.199-.072.072.198a24.52 24.52 0 0 1 1.434 6.957 25.973 25.973 0 0 0-8.053 4.548 25.895 25.895 0 0 0-1.603-6.88 24.417 24.417 0 0 1 7.951-4.751zM26.851 1.958 27 1.809l.15.15a24.529 24.529 0 0 1 5.403 8.138 24.543 24.543 0 0 1 1.792 9.24A24.413 24.413 0 0 1 27.15 36.71l-.15.15-.15-.149a24.614 24.614 0 0 1-5.378-26.683 24.523 24.523 0 0 1 5.38-8.07zM11.673 5.389l.072-.198.199.072a24.416 24.416 0 0 1 7.95 4.752 25.903 25.903 0 0 0-1.603 6.88 25.969 25.969 0 0 0-8.054-4.549 24.52 24.52 0 0 1 1.436-6.957zM1.477 12.381h.21a24.483 24.483 0 0 1 16.504 6.38c-.004.192-.014.38-.014.573a25.863 25.863 0 0 0 7.049 17.811 24.599 24.599 0 0 1-23.75-24.553v-.211zm.314 23.751-.009-.008.009-.009a19.082 19.082 0 0 1 6.66-4.336 25.946 25.946 0 0 0 17.48 6.86 19.304 19.304 0 0 1-3.97 1.992.71.71 0 0 0-.234.088A19.195 19.195 0 0 1 1.791 36.13v.002zm25.358 10.303a.184.184 0 0 1-.298 0 24.578 24.578 0 0 1-3.667-4.689A20.87 20.87 0 0 0 27 39.702a20.851 20.851 0 0 0 3.816 2.044 24.57 24.57 0 0 1-3.667 4.69zm25.069-10.313-.009.008a19.196 19.196 0 0 1-19.936 4.589l-.016-.011a.73.73 0 0 0-.217-.076 19.308 19.308 0 0 1-3.97-1.993 25.945 25.945 0 0 0 17.479-6.86c2.5.96 4.769 2.438 6.66 4.334l.009.009zm.305-23.53a24.6 24.6 0 0 1-23.749 24.553 25.86 25.86 0 0 0 7.05-17.81c0-.193-.01-.383-.015-.574a24.483 24.483 0 0 1 16.504-6.38h.21v.21z" fill="#3C3C3C"/></svg>
